X:1
T:Title
%%score { ( 1 3 ) | ( 2 4 ) }
L:1/8
M:4/4
K:Bb
V:1 treble nm="Grand Piano"
V:3 treble 
V:2 bass 
V:4 bass 
V:1
 z4 z2[Q:1/4=100] [B,D][CE] | [DF][DF][DF][DF] [EG][DF][B,D][CE] | [DF][DF][FB]c d2 [Ec][Fd] | %3
 [Ge]2 [Ge][Ge] edcB | c6 dc | [DB][DF][DF][DF] [EG][DF][B,D][CE] | [DF][DF][FB]c d2 cd | %7
 ed[Gc][FB] [Fd]cBA |[M:3/4] [DB]6 |[M:1/4] [B,D][CE] |[M:4/4] [DF][DF][DF][DF] [DF]FGA | B6 z2 | %12
 GGGG G[FG][=EA][EB] | c6 z2 | edcB [Fd]2 [FB][FB] | cBGA B2 AG | FFFF GABc |[M:3/4] [DB]6 |] %18
V:2
 z4 z2 [B,,F,][B,,F,] | [B,,B,][B,,B,][B,,B,][B,,B,] [B,,B,][B,,B,][B,,F,][B,,F,] | %2
 [B,,B,][B,,B,][D,B,][K:treble][F,A,F] [B,F]2[K:bass] [B,,B,][B,,B,] | %3
 [E,B,]2 [E,B,][E,B,][K:treble] [B,G][B,F][A,CF][G,C=E] | [F,A,F]6[K:bass] [F,A,F][F,A,E] | %5
 [B,,B,][B,,B,][B,,B,][B,,B,] [B,,B,][B,,B,][B,,F,][B,,F,] | %6
 [B,,B,][B,,B,][D,B,][K:treble][F,A,F] [B,F]2 [A,CF][_A,B,F] | %7
 [G,B,E][K:bass][F,B,F][E,B,][D,B,] [E,G,][E,G,E][F,D][F,C] |[M:3/4] [B,,F,]6 | %9
[M:1/4] [B,,F,][B,,F,] |[M:4/4] [B,,B,][B,,B,][B,,B,][B,,B,] [B,,B,][D,B,][F,A,E][F,CE] | %11
 D2 z2 z4 | [E,B,E][E,B,E][E,B,E][E,B,E] [E,B,E][D,=B,][C,C][C,G,] | z2 B,2 z4[K:treble] | %14
 [B,G][B,F][B,E][K:bass][B,D] [B,,B,]2 [D,B,][D,B,] | %15
 [E,G,E][E,G,E][E,B,E][E,^F,E] [E,G,E]2 [E,B,C][=E,B,_D] | %16
 [F,B,D][F,D][F,CE][F,B,D] [F,A,E][F,CE][F,G,E][F,A,E] |[M:3/4] [B,,B,]6 |] %18
V:3
 x8 | x8 | x8 | x8 | x8 | x8 | x8 | x8 |[M:3/4] x6 |[M:1/4] x2 |[M:4/4] x8 | z2 GE D2 [DF][DF] | %12
 x8 | z2 =EG F2 dd | x8 | x8 | x8 |[M:3/4] x6 |] %18
V:4
 x8 | x8 | x3[K:treble] x3[K:bass] x2 | x4[K:treble] x4 | x6[K:bass] x2 | x8 | x3[K:treble] x5 | %7
 x[K:bass] x7 |[M:3/4] x6 |[M:1/4] x2 |[M:4/4] x8 | B,2- [E,B,-][G,B,] B,2 [B,,B,][B,,B,] | x8 | %13
 [F,A,F]2 C,C, [F,A,]2[K:treble] [B,F][B,F] | x3[K:bass] x5 | x8 | x8 |[M:3/4] x6 |] %18

